static/logos/customers/whylabs-wordmark.svg

<?xml version="1.0" encoding="UTF-8"?>
<svg width="401px" height="60px" viewBox="0 0 401 60" version="1.1" xmlns="http://www.w3.org/2000/svg" xmlns:xlink="http://www.w3.org/1999/xlink">
    <title>Group 6</title>
    <g id="Page-1" stroke="none" stroke-width="1" fill="none" fill-rule="evenodd">
        <g id="Group-6">
            <g id="Group">
                <path d="M10.2495207,4.87141101 L26.8015922,49.8760175 C27.3017992,51.2213833 27.2452496,52.5399832 26.6319434,53.828787 C26.0227498,55.1160758 25.0315893,56.0064211 23.6584619,56.4947728 C22.2925318,56.9856495 20.9512778,56.9285825 19.640869,56.3286221 C18.3284039,55.7276516 17.4236101,54.7524635 16.9239172,53.4065927 L0.370817524,8.40501626 L0.335859582,8.30855798 C-0.162805181,6.9631922 -0.106255569,5.64762243 0.506022506,4.35831355 C1.11778649,3.07001471 2.10586245,2.18118447 3.47487715,1.69030776 C4.84800455,1.19943106 6.18823036,1.25700302 7.49812502,1.85645842 C8.81213237,2.4584389 9.715898,3.43160702 10.2145628,4.7769728 L10.2495207,4.87141101 Z" id="Fill-948" fill="#228798"></path>
                <path d="M27.9486357,4.6913081 L44.5007073,49.6959146 C45.0009143,51.0412804 44.9443647,52.3598803 44.3310584,53.6486841 C43.7218649,54.9359729 42.7307044,55.8263182 41.357577,56.3146698 C39.9916468,56.8055465 38.6503928,56.7484796 37.3399841,56.1485192 C36.027519,55.5475487 35.1227252,54.5723605 34.6230323,53.2264897 L18.0699326,8.22491335 L18.0349746,8.12845506 C17.5363099,6.78308928 17.5928595,5.46751951 18.2051376,4.17821064 C18.8169015,2.8899118 19.8049775,2.00108155 21.1739922,1.51020485 C22.5471196,1.01932814 23.8873454,1.0769001 25.1972401,1.6763555 C26.5112474,2.27833598 27.415013,3.2515041 27.9136778,4.59686988 L27.9486357,4.6913081 Z" id="Fill-948" fill="#228798" transform="translate(31.268437, 28.912521) scale(-1, 1) translate(-31.268437, -28.912521) "></path>
                <path d="M62.1669248,4.6913081 L78.7189963,49.6959146 C79.2192034,51.0412804 79.1626538,52.3598803 78.5493475,53.6486841 C77.940154,54.9359729 76.9489935,55.8263182 75.5758661,56.3146698 C74.2099359,56.8055465 72.8686819,56.7484796 71.5582732,56.1485192 C70.2458081,55.5475487 69.3410143,54.5723605 68.8413213,53.2264897 L52.2882217,8.22491335 L52.2532637,8.12845506 C51.7545989,6.78308928 51.8111486,5.46751951 52.4234266,4.17821064 C53.0351906,2.8899118 54.0232666,2.00108155 55.3922813,1.51020485 C56.7654087,1.01932814 58.1056345,1.0769001 59.4155291,1.6763555 C60.7295365,2.27833598 61.6333021,3.2515041 62.1319669,4.59686988 L62.1669248,4.6913081 Z" id="Fill-948-Copy" fill="#228798" transform="translate(65.486726, 28.912521) scale(-1, 1) translate(-65.486726, -28.912521) "></path>
                <path d="M194.154876,2.84217094e-14 C195.612071,2.84217094e-14 196.852357,0.511520106 197.874192,1.53405536 C198.899112,2.55558071 199.410029,3.78262301 199.410029,5.21366742 C199.410029,6.30487664 199.08004,7.30872854 198.421604,8.2297677 L178.127788,35.6316927 L178.127788,50.3016652 C178.127788,51.5620346 177.703222,52.6800065 176.853063,53.6510362 C176.001876,54.6215611 174.953313,55.2093295 173.705831,55.4143415 L173.600974,55.4143415 C173.496118,55.4143415 173.409252,55.43151 173.340889,55.464837 L172.403864,55.464837 C172.333446,55.43151 172.247094,55.4143415 172.143779,55.4143415 L172.039437,55.4143415 C170.790413,55.2093295 169.741335,54.6215611 168.892204,53.6510362 C168.041531,52.6800065 167.615938,51.5620346 167.615938,50.3016652 L167.615938,49.7901451 C167.573838,40.387047 167.552396,35.6638243 167.551612,35.620477 L167.551424,35.6564906 C167.60802,34.4888179 167.763831,33.607718 168.018857,33.0131912 C168.417657,32.0834942 172.451926,26.195883 180.121665,15.3503575 L189.888147,2.14707156 C190.406775,1.50022333 191.032315,0.980623934 191.760142,0.587768414 C192.490538,0.19642776 193.286727,2.84217094e-14 194.154876,2.84217094e-14 Z" id="Combined-Shape" fill="#228798"></path>
                <path d="M156.660675,3.36574079 L167.738567,18.950871 C168.568263,20.0958789 168.877365,21.3690031 168.668339,22.7697412 C168.460792,24.16646 167.79181,25.2878543 166.66583,26.132417 C165.539357,26.9754724 164.292103,27.2909902 162.922588,27.0779654 C161.546664,26.866448 160.445826,26.1846683 159.620075,25.0381532 L148.543168,9.45553503 L148.482531,9.37414351 C147.65678,8.22813075 147.346198,6.95550895 147.556211,5.55326361 C147.761786,4.1575497 148.428303,3.03716019 149.553297,2.19209511 C150.681741,1.3465276 151.931461,1.03151226 153.29999,1.24453699 C154.677885,1.45906897 155.773793,2.14084859 156.602502,3.2853541 L156.660675,3.36574079 Z" id="Fill-952" fill="#FFC000"></path>
                <path d="M45.6468655,4.69217619 L62.2004051,49.6966187 C62.6995972,51.0419946 62.6435602,52.3585844 62.0307518,53.6479031 C61.4210279,54.9352016 60.429327,55.8250487 59.0577054,56.3154241 C57.6891684,56.8047894 56.3494211,56.7492371 55.0394916,56.1477571 C53.7264775,55.5482971 52.8211456,54.5736066 52.3229817,53.2277256 L35.769442,8.22378813 L35.7319127,8.12884418 C35.2358052,6.78397322 35.2923563,5.46738344 35.9051647,4.17705475 C36.5148886,2.89026122 37.5024767,1.99990917 38.8720419,1.51054381 C40.2441776,1.01966339 41.5859813,1.07622574 42.8959108,1.67669572 C44.2089248,2.27817575 45.1127145,3.25236128 45.6129348,4.59622219 L45.6468655,4.69217619 Z" id="Fill-951" fill="#228798"></path>
                <path d="M90.8555594,6.33995114 C90.8555594,4.91075188 91.363152,3.69293084 92.38038,2.68800146 C93.3955653,1.68357657 94.6282903,1.18010292 96.0754911,1.18010292 C97.5252452,1.18010292 98.7554169,1.68357657 99.7731555,2.68800146 C100.789873,3.69293084 101.296955,4.91075188 101.296955,6.33995114 L101.296955,6.33995114 L101.296955,23.7546911 L127.611702,23.7549938 L127.611702,6.33974935 C127.611702,4.91055009 128.119295,3.69272905 129.137544,2.68779967 C130.15324,1.68387926 131.386986,1.18040561 132.833676,1.18040561 C134.281388,1.18040561 135.512581,1.68387926 136.529298,2.68779967 C137.546015,3.69272905 138.053097,4.91055009 138.053097,6.33974935 L138.053097,6.33974935 L138.053097,51.4864034 C138.053097,52.9176206 137.546015,54.1344327 136.529298,55.1388576 C135.512581,56.1437869 134.281388,56.6447382 132.833676,56.6447382 C131.386986,56.6447382 130.15324,56.1437869 129.137544,55.1388576 C128.119295,54.1344327 127.611702,52.9176206 127.611702,51.4864034 L127.611702,51.4864034 L127.611702,34.1231206 L101.297057,34.1231206 L101.296853,51.4866052 C101.296853,52.9178224 100.789771,54.1346345 99.7730534,55.1385549 C98.7558254,56.1434842 97.5256537,56.64494 96.0758996,56.64494 C94.6286988,56.64494 93.3959738,56.1434842 92.3802778,55.1385549 C91.3630499,54.1346345 90.8554572,52.9178224 90.8554572,51.4866052 L90.8554572,51.4866052 Z" id="Combined-Shape" fill="#228798"></path>
                <path d="M246.225717,47.8017316 C247.268523,48.8237526 247.787611,50.0507838 247.787611,51.4818151 C247.787611,52.9143614 247.268523,54.1323034 246.225717,55.137156 C245.184454,56.1435235 246.686157,56.64494 245.228183,56.64494 L215.289315,56.64494 C213.831341,56.64494 212.58944,56.1435235 211.567213,55.137156 C210.54087,54.1323034 210.029499,52.9143614 210.029499,51.4818151 L210.029499,6.39473277 C210.029499,4.96420634 210.54087,3.73616531 211.567213,2.71414431 C212.58944,1.69212332 213.831341,1.18010292 215.289315,1.18010292 C216.747288,1.18010292 217.989189,1.69212332 219.01296,2.71414431 C220.03776,3.73616531 220.549645,4.96420634 220.549645,6.39473277 L220.549645,46.2687001 L242.476349,46.2687001 C243.934322,46.2687001 245.184454,46.7797106 246.225717,47.8017316" id="Fill-957" fill="#636D6F"></path>
                <path d="M297.345133,51.4866052 C297.345133,52.9178224 296.838156,54.1346345 295.823184,55.1385549 C294.808212,56.1434842 293.578731,56.64494 292.13474,56.64494 C291.13862,56.64494 290.2174,56.3816 289.375157,55.8534067 C288.532914,55.3252134 287.906709,54.6355857 287.491956,53.7855325 L287.441004,53.8364852 L282.076734,43.3165092 L269.64027,43.3165092 C268.194751,43.3165092 266.955588,42.8044593 265.924821,41.7833865 C264.893544,40.7623137 264.376887,39.5364209 264.376887,38.1062127 C264.376887,36.6755 264.893544,35.4586879 265.924821,34.454263 C266.955588,33.4498381 268.194751,32.9483824 269.64027,32.9483824 L276.763417,32.9483824 L269.027313,17.8310562 L250.559103,53.8364852 L250.559103,53.7855325 C250.111741,54.6355857 249.476364,55.3252134 248.651445,55.8534067 C247.825506,56.3816 246.913968,56.64494 245.91632,56.64494 C244.472329,56.64494 243.242337,56.1434842 242.228384,55.1385549 C241.215451,54.1346345 240.707965,52.9178224 240.707965,51.4866052 C240.707965,50.6708568 240.896489,49.8863863 241.274046,49.1382386 L241.223093,49.1382386 L264.177153,4.45066373 C264.55522,3.49719158 265.183463,2.71322559 266.060864,2.10027921 C266.936736,1.48783731 267.924703,1.18010292 269.027313,1.18010292 C270.126866,1.18010292 271.106171,1.48783731 271.965229,2.10027921 C272.824796,2.71322559 273.46323,3.49719158 273.873906,4.45066373 L296.777523,49.1382386 C297.15508,49.8863863 297.345133,50.6708568 297.345133,51.4866052" id="Fill-958" fill="#636D6F"></path>
                <path d="M337.711029,45.3329262 C338.756618,44.7028274 339.566639,43.8689176 340.142126,42.8311969 C340.71813,41.7929717 341.00484,40.694713 341.00484,39.5364209 C341.00484,38.2429275 340.622043,37.0165302 339.854383,35.8592471 C339.018532,34.6676592 338.058698,33.8670452 336.979014,33.4584143 C335.897781,33.0507924 334.729243,32.8464769 333.47495,32.8464769 L331.69528,32.8959162 L327.428721,32.8464769 L327.270643,32.8959162 C325.806612,32.8959162 324.560585,32.3863888 323.53256,31.3653159 C322.503503,30.3442431 321.989491,29.1178459 321.989491,27.6866287 C321.989491,26.3593349 322.449777,25.2030607 323.374482,24.2147793 C324.298154,23.2290203 325.423298,22.6655132 326.748365,22.5298073 L327.270643,22.5298073 L327.324885,22.5298073 L331.644653,22.5298073 C333.386095,22.494998 334.736992,21.9340134 335.696309,20.8443309 C336.655109,19.754144 337.135026,18.477803 337.135026,17.0127854 C337.135026,15.5835862 336.672157,14.3309558 335.750035,13.2589303 C334.824813,12.1864002 333.542624,11.6334873 331.905017,11.5991824 L313.809724,11.5991824 L313.809724,46.2783266 L334.153756,46.2783266 C335.477272,46.2783266 336.663891,45.9635295 337.711029,45.3329262 M349.948651,32.1311205 C351.064496,34.4472003 351.622419,36.863672 351.622419,39.3820492 C351.622419,42.3448757 350.898669,45.1457632 349.452719,47.7837028 C348.004703,50.4246693 345.947622,52.5606487 343.279925,54.1941634 C340.613261,55.8276781 337.572065,56.64494 334.153756,56.64494 L308.528572,56.64494 C308.28474,56.64494 308.108064,56.6287965 308.005262,56.5949962 C306.992735,56.5263866 306.096959,56.194437 305.310185,55.599652 C304.527543,55.0033535 303.943274,54.2451161 303.559961,53.3254443 C303.350223,52.7135069 303.244838,52.1005605 303.244838,51.4866052 L303.244838,6.44135215 L303.244838,6.3903994 L303.244838,6.33995114 C303.244838,4.91075188 303.75885,3.69293084 304.788424,2.68800146 C305.815415,1.68408105 307.064025,1.18010292 308.528572,1.18010292 L308.579199,1.18010292 L331.539268,1.18010292 C334.606293,1.18010292 337.387124,1.92017892 339.881762,3.40335782 C342.372784,4.8840143 344.316214,6.84998307 345.712571,9.30227308 C347.105311,11.7530496 347.802715,14.3576934 347.802715,17.1156999 C347.802715,20.2480325 346.863028,23.1755451 344.980039,25.8992468 C344.909782,25.9688654 344.87517,26.0369705 344.87517,26.1050757 C347.143023,27.8077045 348.831772,29.8165543 349.948651,32.1311205" id="Fill-959" fill="#636D6F"></path>
                <path d="M388.279907,26.6543624 C388.279907,26.6543624 390.260632,27.2607127 394.156481,30.0214983 C398.049787,32.7812614 400,36.7322524 400,41.8744712 C400,45.0135866 399.201099,47.8853149 397.60584,50.491701 C396.008547,53.0980871 393.684056,55.1676538 390.628807,56.7019349 C387.572542,58.2362159 383.952824,59.0051458 379.766605,59.0051458 C375.88652,59.0051458 372.258158,58.4361172 368.878975,57.2975488 C365.496742,56.1579578 362.090099,54.4508721 358.659046,52.173224 C357.93795,51.691109 357.371448,51.0704435 356.961064,50.3091824 C356.547629,49.5509889 356.342183,48.722242 356.342183,47.8254979 C356.342183,46.3765967 356.847662,45.1424233 357.860145,44.1250227 C358.873137,43.1065996 360.100729,42.5984105 361.541903,42.5984105 C362.639311,42.5984105 363.583143,42.8729553 364.373907,43.4266462 L364.373907,43.3734755 C366.981141,45.1005003 369.487686,46.3944907 371.890491,47.2564693 C374.29177,48.1184479 376.917819,48.5499485 379.766605,48.5499485 C383.164094,48.5499485 385.64267,47.911389 387.205891,46.6352926 C388.767079,45.3581736 389.548181,43.7717444 389.548181,41.8744712 C389.548181,40.4935671 389.051347,39.3549987 388.055137,38.4562096 C387.058926,37.5599768 385.806417,36.8442176 384.297099,36.3084207 C382.785748,35.7741575 380.693655,35.1790548 378.015227,34.5236239 C374.480434,33.6263686 371.571642,32.76439 369.289868,31.935643 C367.007585,31.1079186 364.879386,29.8486936 362.905781,28.1564343 C360.932684,26.4672425 359.533209,24.2581028 358.709899,21.5315714 C358.332061,20.3935142 358.143396,19.0463531 358.143396,17.4941781 L358.143396,17.0810827 C358.247137,13.1469633 359.164525,9.90355144 360.89963,7.35084728 C362.630666,4.79763186 364.904304,2.93461284 367.719527,1.7607677 C370.533224,0.588456337 373.622035,0 376.987488,0 C380.623986,0 384.193359,0.621176759 387.695097,1.86455279 C390.131974,2.76180811 392.413748,3.77971998 394.541438,4.91675465 C395.399837,5.36614919 396.086861,6.00521993 396.600476,6.83192184 C397.115109,7.66015752 397.374459,8.57581807 397.374459,9.57583597 C397.374459,11.0242259 396.865929,12.2599331 395.854971,13.2757999 C394.841471,14.2957568 393.614896,14.8039459 392.173722,14.8039459 C391.315832,14.8039459 390.509303,14.6142697 389.754136,14.2333835 C386.905859,12.7517619 384.562043,11.7686155 382.727267,11.2839442 C380.889948,10.8002955 379.028219,10.5594937 377.141572,10.5594937 C374.944214,10.5594937 373.220297,10.8176782 371.96677,11.3360924 C370.71426,11.8529728 369.838063,12.5978737 369.341229,13.5610811 C368.84287,14.5288898 368.577925,15.786581 368.543345,17.3392673 L368.543345,17.4941781 C368.577925,19.1864374 369.5899,20.5151933 371.579779,21.4804457 C373.571182,22.4472319 375.940424,23.2391684 378.685978,23.8613677 C385.103119,25.2080175 388.279907,26.6543624 388.279907,26.6543624" id="Fill-960" fill="#636D6F"></path>
            </g>
        </g>
    </g>
</svg>

<svg xmlns="http://www.w3.org/2000/svg" width="401" height="60" viewBox="0 0 401 60"><title>Group 6</title><g fill="none" fill-rule="evenodd"><path fill="#228798" d="m10.25 4.871 16.552 45.005q.75 2.018-.17 3.953-.914 1.931-2.974 2.666c-1.365.49-2.707.434-4.017-.166q-1.968-.903-2.717-2.922L.37 8.405l-.035-.096q-.748-2.018.17-3.95.917-1.933 2.969-2.669 2.059-.734 4.023.166 1.97.903 2.717 2.921z"/><path fill="#228798" d="M34.588 4.691 18.036 49.696q-.75 2.018.17 3.953.914 1.931 2.973 2.666 2.05.734 4.018-.166 1.968-.903 2.717-2.923L44.467 8.225l.035-.097q.748-2.016-.17-3.95-.916-1.932-2.97-2.668-2.058-.734-4.022.166-1.97.904-2.717 2.92zM68.807 4.691 52.254 49.696q-.75 2.018.17 3.953.914 1.931 2.974 2.666 2.05.734 4.017-.166 1.968-.903 2.717-2.923L78.685 8.225l.035-.097q.748-2.016-.17-3.95-.917-1.932-2.969-2.668-2.059-.734-4.023.166-1.97.904-2.717 2.92zM194.155 0q2.186 0 3.72 1.534 1.536 1.533 1.535 3.68 0 1.635-.988 3.016l-20.294 27.402v14.67q0 1.891-1.275 3.349-1.276 1.455-3.147 1.763h-.105a.6.6 0 0 0-.26.05h-.937a.6.6 0 0 0-.26-.05h-.105q-1.874-.307-3.147-1.763-1.275-1.457-1.276-3.35v-.51l-.064-14.17v.035q.084-1.75.467-2.643.598-1.395 12.103-17.663l9.766-13.203a6.1 6.1 0 0 1 1.872-1.56A5 5 0 0 1 194.155 0"/><path fill="#ffc000" d="M156.66 3.366 167.74 18.95q1.243 1.718.93 3.819-.313 2.095-2.003 3.362-1.69 1.265-3.743.946-2.064-.319-3.303-2.04L148.543 9.456l-.06-.082q-1.24-1.718-.927-3.82.31-2.094 1.997-3.362 1.693-1.267 3.747-.947c1.378.214 2.474.896 3.303 2.04z"/><path fill="#228798" d="M45.647 4.692 62.2 49.697q.75 2.018-.17 3.95-.914 1.932-2.972 2.668-2.054.735-4.019-.167-1.97-.9-2.716-2.92L35.769 8.224l-.037-.095q-.745-2.017.173-3.952.913-1.932 2.967-2.666 2.058-.736 4.024.166 1.968.902 2.717 2.92zM90.856 6.34q0-2.145 1.524-3.652t3.695-1.508q2.173.001 3.698 1.508t1.524 3.652v17.415h26.315V6.34q-.001-2.145 1.526-3.652 1.524-1.507 3.696-1.508 2.17.001 3.695 1.508t1.524 3.652v45.146q0 2.147-1.524 3.653t-3.695 1.506-3.696-1.506q-1.527-1.506-1.526-3.653V34.123h-26.315v17.364q0 2.145-1.524 3.652-1.524 1.506-3.697 1.506-2.171 0-3.696-1.506t-1.525-3.652Z"/><path fill="#636d6f" d="M246.226 47.802q1.563 1.533 1.562 3.68t-1.562 3.655c-1.042 1.007.46 1.508-.998 1.508H215.29q-2.188.001-3.722-1.508-1.539-1.507-1.538-3.655V6.395q0-2.147 1.538-3.68 1.534-1.535 3.722-1.535t3.724 1.534q1.537 1.534 1.537 3.68V46.27h21.926q2.187 0 3.75 1.533"/><path fill="#636d6f" d="M297.345 51.487q0 2.145-1.522 3.652-1.522 1.506-3.688 1.506a5.1 5.1 0 0 1-2.76-.792q-1.262-.792-1.883-2.067l-.051.05-5.364-10.52H269.64q-2.168 0-3.715-1.533-1.547-1.531-1.548-3.677 0-2.145 1.548-3.652 1.546-1.506 3.715-1.506h7.123l-7.736-15.117-18.468 36.005v-.05a5.4 5.4 0 0 1-1.908 2.067 4.97 4.97 0 0 1-2.735.792q-2.167 0-3.688-1.506-1.52-1.506-1.52-3.652 0-1.225.566-2.349h-.05l22.953-44.687q.567-1.431 1.884-2.35a5.05 5.05 0 0 1 2.966-.92q1.65 0 2.938.92a5.53 5.53 0 0 1 1.909 2.35l22.904 44.687q.566 1.124.567 2.349M337.711 45.333a6.65 6.65 0 0 0 2.431-2.502 6.7 6.7 0 0 0 .863-3.295q0-1.94-1.15-3.677-1.255-1.787-2.876-2.4-1.622-.612-3.504-.613l-1.78.05-4.266-.05-.158.05q-2.196 0-3.738-1.53-1.544-1.532-1.544-3.68-.001-1.99 1.385-3.471 1.387-1.48 3.374-1.685h4.897q2.612-.052 4.051-1.686t1.439-3.831q-.001-2.145-1.385-3.754-1.388-1.61-3.845-1.66H313.81v34.68h20.344q1.986 0 3.557-.946m12.238-13.202q1.673 3.474 1.673 7.251 0 4.445-2.17 8.402-2.17 3.96-6.172 6.41-4 2.45-9.126 2.45h-25.625q-.367.001-.524-.049a4.9 4.9 0 0 1-2.695-.995 5.44 5.44 0 0 1-1.75-2.275 5.6 5.6 0 0 1-.315-1.838V6.34q0-2.145 1.543-3.652t3.74-1.508h23.011q4.6 0 8.343 2.223 3.736 2.221 5.83 5.9 2.09 3.676 2.09 7.813.001 4.698-2.822 8.783-.105.104-.105.206 3.4 2.555 5.074 6.026M388.28 26.654s1.98.607 5.876 3.367q5.842 4.14 5.844 11.853 0 4.709-2.394 8.618t-6.977 6.21q-4.584 2.302-10.862 2.303-5.82 0-10.888-1.707-5.073-1.709-10.22-5.125a5.15 5.15 0 0 1-1.698-1.864 5.1 5.1 0 0 1-.619-2.484q0-2.173 1.518-3.7 1.52-1.527 3.682-1.527 1.645-.001 2.832.829v-.054q3.912 2.591 7.516 3.883 3.603 1.293 7.877 1.294 5.095 0 7.439-1.915 2.342-1.915 2.342-4.76 0-2.071-1.493-3.419-1.494-1.344-3.758-2.148-2.265-.801-6.282-1.784-5.302-1.346-8.725-2.588t-6.384-3.78q-2.96-2.534-4.196-6.624-.567-1.709-.567-4.038v-.413q.155-5.9 2.757-9.73 2.596-3.83 6.82-5.59Q371.94 0 376.987 0q5.455 0 10.708 1.865a54 54 0 0 1 6.846 3.052 5.25 5.25 0 0 1 2.06 1.915 5.1 5.1 0 0 1 .773 2.744c0 1.448-.508 2.684-1.519 3.7q-1.52 1.529-3.681 1.528-1.287 0-2.42-.57-4.273-2.223-7.027-2.95a21.9 21.9 0 0 0-5.585-.725q-3.296 0-5.175.777c-1.253.517-2.129 1.262-2.626 2.225q-.746 1.451-.798 3.778v.155q.052 2.538 3.037 3.986 2.987 1.45 7.106 2.381c6.417 1.347 9.594 2.793 9.594 2.793"/></g></svg>
